X:1
T:Navvie on the Line
T:Navvie on the Line
T:James Hill
C:James Hill
L:1/8
M:2/2
K:A
V:1 treble 
V:1
 (c>d) | e>(ag>)(f e>)(dc>)(B | A)cE>A c2 (3cBA | G>BE>G B2 (3BAG | A>cE>A c2 (c>d) | %5
 e>(ag>)(f e>)(dc>)(B | A)cE>A c2 (3cBA | G>AB>c d>ef>g | a2 A2 A2 :: (3cBA | G>BE>G B2 (3BAG | %11
 A>cE>A c2 (3cBA | G>BE>G B2 (3BAG | A>cE>A c2 (c>d) | e>(ag>)(f e>)(dc>)(B | A>)cEA>A c2 (3cBA | %16
 G>AB>c d>ef>g | a2 A2 A2 :| %18

